X:109
%%etbk:tnset id:38,pos:3,rep:3
%%etbk:site1 http://www.thesession.org/tunes/display/430
T: Sporting Paddy
Z: Piano Box Version by Martin Fleischmann (www.boxplayer.ch)
M: 4/4
L: 1/8
R: reel
K: Ador
|: "am"!1!E2!3!AB !2!GABG | !1!E!3!AAB !2!G{B}G!1!E!2!D | !1!E!3!AAB !1!GA!3!B!4!d |1 "em"!2!ed!4!ge !1!d!2!B!1!A!2!G :|2 "em"!2!edge !1!d2ef ||
"am" !4!g!1!e!2!e!1!e !2!g!2!ede | !4!g!1!e !3!(3e!2!e!1!e !4!a2ba | !3!g!1!e!2!e!1!e !4!ge!1!d2 | "em"!2!efge !1!d2ef |
 "am"!4!g!1!e!2!e!1!e !2!g!2!ede | !4!g!1!e !3!(3e!2!e!1!e !4!a2ga | !5!bgab !3!g!2!e!1!d2 | "em"!2!efge !1!d!2!B!1!A!2!G ||
 
